contributed-vectors/samsung_members.svg

<svg xmlns="http://www.w3.org/2000/svg" xml:space="preserve" style="fill-rule:evenodd;clip-rule:evenodd;stroke-linejoin:round;stroke-miterlimit:2" viewBox="0 0 192 192"><path d="M164.5 21.5c0-5.519-4.481-10-10-10h-133c-5.519 0-10 4.481-10 10v133c0 5.519 4.481 10 10 10h133c5.519 0 10-4.481 10-10v-133Z" style="fill:#fff" transform="translate(8 8)"/><path d="M81.548 78.821v41.557c0 6.759-5.48 12.239-12.239 12.239h-1.022a12.24 12.24 0 0 1-12.239-12.239V78.821h25.5Zm13.643 28.048a16.469 16.469 0 0 1-.002-.001l.002.001Zm-2.59-.323Zm-.803-.186a17.998 17.998 0 0 0 .039.01l-.039-.01a7.045 7.045 0 0 1-.138-.037l.138.037Zm-2.72-.971Zm-.511-.246.051.025-.165-.084.114.059Zm-.528-.279.316.17-.446-.242.13.072Zm-1.258-.769-.12-.081.12.081.011.008.121.08.118.078.014.009.121.078.117.073.02.013.119.073.116.07.025.015.117.068-.117-.068-.025-.015-.235-.143-.02-.013c-.08-.049-.159-.1-.238-.151l-.058-.037-.195-.13-.011-.008Zm-1.484-1.131.326.269.291.235-.141-.111-.15-.124-.2-.16-.126-.109-.044-.036-.129-.113.173.149Zm8.379-26.267.211.124.176.099-.084-.044-.092-.055-.135-.075-.076-.049-.034-.02-.099-.067.133.087Zm-.57-.435.064.057-.113-.103.049.046Zm-36.336-7.11-.203.673-.044.168-.142.591-.077.376-.109.626.068-.427.041-.199.035-.199.042-.177.044-.211.098-.38.028-.117.016-.051.017-.067.186-.606.027-.081a1.88 1.88 0 0 1 .028-.08l-.055.161Zm.712-1.744-.222.482-.068.153-.096.237-.214.547.071-.193.143-.354.073-.188.023-.049.012-.031.056-.122.161-.359.061-.123.021-.046.1-.199-.121.245Zm.587-1.086Zm.52-.803c.049-.072.1-.144.152-.215l-.152.215-.337.507c.108-.172.221-.341.337-.507Zm.912-1.175.115-.132-.115.132Zm.352-.393.121-.128-.24.258.119-.13Zm18.948-1.76-.251-.177.135.094.116.083c.247.178.49.364.727.559l.463.395.082.076.063.055.313.295-.376-.35-.545-.471c-.237-.195-.48-.381-.727-.559Zm-17.804.662-.098.085.135-.117-.037.032Zm.543-.443-.138.108.138-.108Zm.604-.444.246-.167-.246.167Zm1.288-.796-.011.006.155-.084-.144.078Zm.579-.299.195-.094-.195.094Zm12.009-.251-.135-.058.462.203-.327-.145Zm-1.343-.5-.135-.043.465.152-.33-.109Zm-8.49-.098-.309.096.27-.085.039-.011.128-.038-.128.038Zm6.406-.399-.86-.115.164.018.658.09.038.007.043.006.226.045.555.106.123.031.096.02.563.145-.659-.165-.678-.137-.269-.051Zm-5.326.123.231-.048-.231.048Zm2.574-.309-.607.03c.201-.014.404-.024.607-.03Z" style="fill:#728dbe;fill-rule:nonzero"/><path d="m99.052 76.118 12.44-12.452a14.436 14.436 0 0 1 10.165-4.234h.002a14.1 14.1 0 0 1 14.148 14.066l.113 46.85a12.242 12.242 0 0 1-12.24 12.269h-.167c-6.76 0-12.24-5.48-12.24-12.239V98.732l-.022.022L94.04 81.126l8.347-8.149-.216.019-3.119 3.122a4.126 4.126 0 0 1-.234.218l.234-.218Zm1.773 30.009.515-.167-.154.053-.361.114-.251.081-.103.03c-.415.121-.834.224-1.256.311l-.377.073-.364.057-.196.034-.105.013-.092.015-.235.025-.303.037-.246.023.549-.06.327-.04.301-.047.741-.13c.422-.087.841-.19 1.256-.311l.354-.111Zm.861-.293-.119.044.169-.063-.05.019Zm2.585-1.246Zm.875-.56-.492.325c.165-.105.329-.213.492-.325Zm1.368-1.053.286-.245-.145.128-.141.117-.206.178c-.081.067-.162.132-.244.197l.45-.375Z" style="fill:#728dbe"/><path d="M56.048 87.639V73.621a14.19 14.19 0 0 1 14.238-14.19 14.672 14.672 0 0 1 10.341 4.315l12.324 12.368a4.312 4.312 0 0 0 6.101.004l3.119-3.122c4.308-.42 9.282.78 9.23 8.586a5416.293 5416.293 0 0 1-.128 17.152l-4.473 3.996c-6.164 5.507-15.469 5.543-21.676.085l-3.576-3.144-14.797-15.172s-6.523-7.344-10.703 3.14Z" style="fill:#9abeff;fill-rule:nonzero"/></svg>

<?xml version="1.0" encoding="UTF-8" standalone="no"?>
<!DOCTYPE svg PUBLIC "-//W3C//DTD SVG 1.1//EN" "http://www.w3.org/Graphics/SVG/1.1/DTD/svg11.dtd">
<svg width="100%" height="100%" viewBox="0 0 192 192" version="1.1" xmlns="http://www.w3.org/2000/svg" xmlns:xlink="http://www.w3.org/1999/xlink" xml:space="preserve" xmlns:serif="http://www.serif.com/" style="fill-rule:evenodd;clip-rule:evenodd;stroke-linejoin:round;stroke-miterlimit:2;">
    <g id="Layer1">
        <g transform="matrix(1,0,0,1,8,8)">
            <path d="M164.5,21.5C164.5,15.981 160.019,11.5 154.5,11.5L21.5,11.5C15.981,11.5 11.5,15.981 11.5,21.5L11.5,154.5C11.5,160.019 15.981,164.5 21.5,164.5L154.5,164.5C160.019,164.5 164.5,160.019 164.5,154.5L164.5,21.5Z" style="fill:white;"/>
        </g>
        <path d="M81.548,78.821L81.548,120.378C81.548,127.137 76.068,132.617 69.309,132.617C68.968,132.617 68.627,132.617 68.287,132.617C65.041,132.617 61.928,131.327 59.633,129.032C57.337,126.737 56.048,123.624 56.048,120.378L56.048,78.821L81.548,78.821ZM95.191,106.869C94.807,106.852 94.423,106.821 94.04,106.777C94.422,106.821 94.805,106.851 95.189,106.868L95.191,106.869ZM92.601,106.546C92.814,106.59 93.029,106.63 93.244,106.666C93.459,106.701 93.674,106.732 93.89,106.759C93.458,106.706 93.028,106.635 92.601,106.546ZM91.798,106.36C92.011,106.415 92.224,106.465 92.438,106.512C92.237,106.469 92.037,106.421 91.837,106.37L91.798,106.36C91.752,106.348 91.706,106.336 91.66,106.323L91.798,106.36ZM89.078,105.389C89.38,105.528 89.685,105.658 89.993,105.777C90.301,105.897 90.612,106.007 90.925,106.107C90.298,105.906 89.682,105.667 89.078,105.389ZM88.567,105.143L88.618,105.168L88.453,105.084L88.567,105.143ZM88.039,104.864L88.355,105.034L87.909,104.792L88.039,104.864ZM86.781,104.095C86.741,104.069 86.701,104.041 86.661,104.014C86.544,103.933 86.428,103.851 86.312,103.767C86.428,103.851 86.544,103.933 86.661,104.014L86.781,104.095L86.792,104.103L86.913,104.183L87.031,104.261L87.045,104.27L87.166,104.348L87.283,104.421L87.303,104.434L87.422,104.507L87.538,104.577L87.563,104.592L87.68,104.66C87.641,104.638 87.602,104.615 87.563,104.592L87.538,104.577C87.459,104.53 87.381,104.482 87.303,104.434L87.283,104.421C87.203,104.372 87.124,104.321 87.045,104.27L86.987,104.233C86.922,104.19 86.857,104.147 86.792,104.103L86.781,104.095ZM85.297,102.964L85.623,103.233L85.914,103.468L85.773,103.357L85.623,103.233L85.423,103.073L85.297,102.964L85.253,102.928L85.124,102.815L85.297,102.964ZM93.676,76.697L93.887,76.821L94.063,76.92L93.979,76.876L93.887,76.821L93.752,76.746L93.676,76.697L93.642,76.677L93.543,76.61L93.676,76.697ZM93.106,76.262L93.17,76.319L93.057,76.216L93.106,76.262ZM56.77,69.152L56.567,69.825L56.523,69.993L56.381,70.584L56.304,70.96L56.195,71.586L56.263,71.159L56.304,70.96L56.339,70.761L56.381,70.584L56.425,70.373L56.523,69.993L56.551,69.876L56.567,69.825L56.584,69.758L56.77,69.152L56.797,69.071C56.806,69.044 56.815,69.017 56.825,68.991L56.77,69.152ZM57.482,67.408L57.26,67.89L57.192,68.043L57.096,68.28L56.882,68.827L56.953,68.634L57.096,68.28L57.169,68.092L57.192,68.043L57.204,68.012L57.26,67.89L57.421,67.531L57.482,67.408L57.503,67.362L57.603,67.163L57.482,67.408ZM58.069,66.322C58.003,66.432 57.939,66.542 57.876,66.654C57.813,66.765 57.752,66.877 57.693,66.991C57.812,66.765 57.938,66.542 58.069,66.322ZM58.589,65.519C58.638,65.447 58.689,65.375 58.741,65.304L58.589,65.519L58.252,66.026C58.36,65.854 58.473,65.685 58.589,65.519ZM59.501,64.344L59.616,64.212L59.501,64.344ZM59.853,63.951C59.893,63.908 59.933,63.865 59.974,63.823L59.734,64.081L59.853,63.951ZM78.801,62.191L78.55,62.014L78.685,62.108L78.801,62.191C79.048,62.369 79.291,62.555 79.528,62.75C79.528,62.75 79.991,63.145 79.991,63.145L80.073,63.221L80.136,63.276L80.449,63.571L80.073,63.221L79.528,62.75C79.291,62.555 79.048,62.369 78.801,62.191ZM60.997,62.853L60.899,62.938L61.034,62.821L60.997,62.853ZM61.54,62.41L61.402,62.518C61.448,62.482 61.494,62.446 61.54,62.41ZM62.144,61.966L62.39,61.799L62.144,61.966ZM63.432,61.17L63.421,61.176L63.576,61.092L63.432,61.17ZM64.011,60.871L64.206,60.777L64.011,60.871ZM76.02,60.62L75.885,60.562L76.347,60.765L76.02,60.62ZM74.677,60.12L74.542,60.077L75.007,60.229L74.677,60.12ZM66.187,60.022C66.084,60.053 65.981,60.085 65.878,60.118C65.968,60.089 66.058,60.061 66.148,60.033L66.187,60.022C66.23,60.009 66.272,59.997 66.315,59.984L66.187,60.022ZM72.593,59.623L71.733,59.508L71.897,59.526L72.555,59.616L72.593,59.623L72.636,59.629L72.862,59.674L73.417,59.78L73.54,59.811L73.636,59.831L74.199,59.976L73.54,59.811L72.862,59.674L72.593,59.623ZM67.267,59.746L67.498,59.698L67.267,59.746ZM69.841,59.437L69.234,59.467C69.435,59.453 69.638,59.443 69.841,59.437Z" style="fill:rgb(114,141,190);fill-rule:nonzero;"/>
        <path d="M99.052,76.118L111.492,63.666C114.188,60.967 117.842,59.445 121.657,59.432C121.657,59.432 121.658,59.432 121.659,59.432C125.401,59.419 128.994,60.894 131.648,63.532C134.302,66.171 135.798,69.756 135.807,73.498C135.84,87.083 135.888,107.419 135.92,120.348C135.927,123.599 134.641,126.72 132.345,129.022C130.049,131.323 126.931,132.617 123.68,132.617C123.624,132.617 123.568,132.617 123.513,132.617C116.753,132.617 111.273,127.137 111.273,120.378L111.273,98.734L111.273,98.732L111.251,98.754L94.04,81.126L102.387,72.977C102.315,72.983 102.243,72.989 102.171,72.996L99.052,76.118C99.003,76.167 98.953,76.215 98.901,76.262C98.874,76.287 98.846,76.312 98.818,76.336L99.052,76.118ZM100.825,106.127L101.34,105.96L101.186,106.013L100.825,106.127L100.574,106.208L100.471,106.238C100.056,106.359 99.637,106.462 99.215,106.549C99.215,106.549 98.838,106.622 98.838,106.622L98.474,106.679L98.278,106.713L98.173,106.726L98.081,106.741L97.846,106.766L97.543,106.803L97.297,106.826L97.846,106.766L98.173,106.726L98.474,106.679L99.215,106.549C99.637,106.462 100.056,106.359 100.471,106.238L100.825,106.127ZM101.686,105.834L101.567,105.878L101.736,105.815L101.686,105.834ZM104.271,104.588C103.909,104.804 103.541,105.004 103.167,105.19C102.793,105.375 102.413,105.545 102.029,105.7C102.797,105.39 103.547,105.019 104.271,104.588ZM105.146,104.028L104.654,104.353C104.819,104.248 104.983,104.14 105.146,104.028ZM106.514,102.975L106.8,102.73L106.655,102.858L106.514,102.975L106.308,103.153C106.227,103.22 106.146,103.285 106.064,103.35L106.514,102.975Z" style="fill:rgb(114,141,190);"/>
        <path d="M56.048,87.639L56.048,73.621C56.048,69.85 57.549,66.233 60.221,63.571C62.892,60.908 66.514,59.419 70.286,59.431C70.286,59.431 70.286,59.431 70.286,59.431C74.168,59.445 77.887,60.996 80.627,63.746C84.348,67.48 89.647,72.798 92.951,76.114C93.759,76.925 94.857,77.381 96.001,77.382C97.146,77.382 98.244,76.928 99.052,76.118L102.171,72.996C106.479,72.576 111.453,73.776 111.401,81.582C111.31,95.326 111.273,98.734 111.273,98.734C111.273,98.734 109.315,100.483 106.8,102.73C100.636,108.237 91.331,108.273 85.124,102.815L81.548,99.671L66.751,84.499C66.751,84.499 60.228,77.155 56.048,87.639Z" style="fill:rgb(154,190,255);fill-rule:nonzero;"/>
    </g>
</svg>
